icons/kopete.svg

<?xml version="1.0" encoding="UTF-8" standalone="no"?>
<!-- Created with Inkscape (http://www.inkscape.org/) -->
<svg
   xmlns:dc="http://purl.org/dc/elements/1.1/"
   xmlns:cc="http://creativecommons.org/ns#"
   xmlns:rdf="http://www.w3.org/1999/02/22-rdf-syntax-ns#"
   xmlns:svg="http://www.w3.org/2000/svg"
   xmlns="http://www.w3.org/2000/svg"
   xmlns:sodipodi="http://sodipodi.sourceforge.net/DTD/sodipodi-0.dtd"
   xmlns:inkscape="http://www.inkscape.org/namespaces/inkscape"
   width="64px"
   height="64px"
   id="svg2816"
   version="1.1"
   inkscape:version="0.46+devel"
   sodipodi:docname="kopete.svg"
   sodipodi:version="0.32"
   inkscape:output_extension="org.inkscape.output.svg.inkscape">
  <defs
     id="defs2818">
    <inkscape:perspective
       sodipodi:type="inkscape:persp3d"
       inkscape:vp_x="0 : 32 : 1"
       inkscape:vp_y="0 : 1000 : 0"
       inkscape:vp_z="64 : 32 : 1"
       inkscape:persp3d-origin="32 : 21.333333 : 1"
       id="perspective2824" />
    <inkscape:perspective
       id="perspective3212"
       inkscape:persp3d-origin="0.5 : 0.33333333 : 1"
       inkscape:vp_z="1 : 0.5 : 1"
       inkscape:vp_y="0 : 1000 : 0"
       inkscape:vp_x="0 : 0.5 : 1"
       sodipodi:type="inkscape:persp3d" />
    <pattern
       patternUnits="userSpaceOnUse"
       width="61.424216"
       height="60.46547"
       patternTransform="translate(1.5250875,-0.1737675)"
       id="pattern4812">
      <path
         id="path3218"
         d="m 22.609428,59.501733 c 0.353795,-0.66107 1.046912,-1 2.045027,-1 1.837558,0 6.416851,-3.005004 9.801784,-6.43209 1.87121,-1.89451 3.06728,-2.623983 5.403189,-3.295358 8.128798,-2.336336 15.689085,-8.433987 18.985545,-15.312537 2.013365,-4.201185 2.244875,-6.905454 1.00026,-11.683864 C 57.164323,11.485181 48.51511,3.114148 38.109428,0.741155 L 34.859428,0 37.533912,0.2746525 c 4.253402,0.436798 10.135727,2.536738 13.576081,4.846545 5.645845,3.790546 9.02716,9.1643295 10.036485,15.9505695 1.92374,12.934317 -6.26592,24.379839 -20.844919,29.131981 -1.579649,0.5149 -3.491826,1.70256 -5,3.105525 -2.66797,2.481855 -7.936619,6.358325 -9.301118,6.84341 -0.472443,0.16796 -0.992348,0.08959 -1.155344,-0.17414 -0.187753,-0.30379 -0.639655,-0.295785 -1.233142,0.02185 -1.372853,0.734715 -1.601693,0.620895 -1.002527,-0.49866 z m -2.5,-9.43934 c -2.687,-0.865271 -6.136837,-2.500819 -5.35894,-2.540641 0.215082,-0.01101 1.115082,0.281996 2,0.651126 0.884917,0.36913 2.790884,0.954238 4.235482,1.30024 1.444598,0.346005 2.751627,0.831485 2.904508,1.078855 0.403174,0.65235 -0.664062,0.51416 -3.78105,-0.48958 z m 1.260804,-11.43566 c 0.920602,-2.190168 0.876997,-3.125 -0.145765,-3.125 -1.489813,0 -1.840139,-2.821621 -0.398401,-3.208821 1.931482,-0.518726 2.189311,-0.292732 2.535199,2.222175 0.26381,1.91813 0.15378,2.806221 -0.464608,3.75 -0.932718,1.423508 -2.087792,1.697173 -1.526425,0.361646 z m 19.501803,-2.160732 c 2.212122,-6.269822 1.480661,-16.043606 -1.558276,-20.821676 -0.90599,-1.424473 -0.896869,-1.475611 0.319936,-1.793812 1.478234,-0.386567 3.735279,3.451709 4.793213,8.15122 0.710836,3.157652 0.755802,4.359373 0.284663,7.607771 -0.698376,4.815149 -2.368017,8.892229 -3.641535,8.892229 -0.855911,0 -0.86895,-0.134059 -0.198001,-2.035732 z M 1.5816947,34.305488 C -1.8551193,26.536 0.45812119,16.071519 7.0719507,9.469039 11.440725,5.107761 18.015712,1.6989365 23.859428,0.765514 c 1.570813,-0.2509075 1.30257,-0.0720695 -1.25,0.833379 -6.292795,2.232182 -11.770114,6.4431525 -15.3020458,11.764233 -3.728422,5.617105 -5.805999,14.512317 -4.791184,20.513607 0.244137,1.443751 0.3523365,2.625 0.240443,2.625 -0.1118935,0 -0.6406195,-0.988309 -1.1749465,-2.196244 z M 25.849208,26.469531 c -0.446496,-1.406784 0.03608,-1.678235 4.356029,-2.450252 2.939032,-0.525234 3.597447,-0.516716 3.957256,0.05119 0.875057,1.381164 0.381582,1.873094 -2.428065,2.420465 -1.58125,0.308056 -3.474271,0.675107 -4.206714,0.815669 -1.05225,0.201936 -1.40449,0.02627 -1.678506,-0.837076 z m -7.978029,-4.372713 c -0.6258,-0.6258 -0.178621,-2.054081 0.733775,-2.343665 1.261447,-0.400367 2.004474,0.05179 2.004474,1.2198 0,0.868213 -2.122683,1.73943 -2.738249,1.123865 z M 26.474912,0.1737655 c 0.338517,-0.1369615 1.013517,-0.1452985 1.5,-0.018525 0.486484,0.126772 0.209516,0.2388315 -0.615484,0.249021 -0.825,0.01019 -1.223032,-0.0935325 -0.884516,-0.230494 z"
         style="fill:#000000" />
    </pattern>
  </defs>
  <sodipodi:namedview
     id="base"
     pagecolor="#ffffff"
     bordercolor="#666666"
     borderopacity="1.0"
     inkscape:pageopacity="0.0"
     inkscape:pageshadow="2"
     inkscape:zoom="6.65625"
     inkscape:cx="28.710312"
     inkscape:cy="34.014532"
     inkscape:current-layer="layer1"
     showgrid="true"
     inkscape:document-units="px"
     inkscape:grid-bbox="true"
     inkscape:window-width="1580"
     inkscape:window-height="1090"
     inkscape:window-x="0"
     inkscape:window-y="26"
     inkscape:window-maximized="1">
    <inkscape:grid
       type="xygrid"
       id="grid3222"
       empspacing="4"
       visible="true"
       enabled="true"
       snapvisiblegridlinesonly="true" />
  </sodipodi:namedview>
  <metadata
     id="metadata2821">
    <rdf:RDF>
      <cc:Work
         rdf:about="">
        <dc:format>image/svg+xml</dc:format>
        <dc:type
           rdf:resource="http://purl.org/dc/dcmitype/StillImage" />
        <dc:title />
      </cc:Work>
    </rdf:RDF>
  </metadata>
  <g
     id="layer1"
     inkscape:label="Layer 1"
     inkscape:groupmode="layer">
    <path
       style="opacity:1;fill:#000000;fill-opacity:1;fill-rule:nonzero;stroke:none"
       d="m 32,0 c -17.673112,0 -32,9.8497355 -32,22 0,10.236907 10.164802,18.856574 23.9375,21.3125 L 20,64 36,44 C 40.034165,38.957293 60.950066,35.541826 64,22 64,9.8497355 49.673112,0 32,0 z m -0.125,10.4375 c 0.307289,2.4e-05 0.614581,0.114607 0.875,0.34375 0.260414,0.223981 0.374997,0.505231 0.375,0.84375 l 0,0.8125 c 2.536453,-1.171852 4.97395,-1.749977 7.28125,-1.75 1.578113,0.020857 2.963528,0.348981 4.15625,1.03125 1.197901,0.677105 2.10415,1.593771 2.75,2.75 0.651024,1.156268 1.00519,2.437517 1.03125,3.84375 -1.8e-05,1.375014 -0.317726,2.812513 -0.90625,4.28125 -0.58335,1.46876 -1.458349,2.90105 -2.6875,4.3125 -1.223972,1.411464 -2.828137,2.708338 -4.75,3.90625 -1.921883,1.19271 -4.171881,2.203126 -6.75,3 C 32.937497,33.942708 32.630206,34 32.28125,34 31.786457,34 31.390624,33.901042 31.09375,33.71875 30.796874,33.53125 30.624999,33.312501 30.625,33.0625 l 0,-21.1875 c -1e-06,-0.963519 0.416666,-1.437476 1.25,-1.4375 z m -12.34375,1.25 c 0.843745,2.8e-05 1.578119,0.300809 2.1875,0.875 0.609368,0.562527 0.906242,1.261745 0.90625,2.09375 -8e-06,0.914087 -0.296882,1.644555 -0.90625,2.21875 -0.597662,0.574241 -1.332037,0.875022 -2.1875,0.875 -0.855472,2.2e-05 -1.578128,-0.300759 -2.1875,-0.875 -0.597658,-0.585914 -0.906251,-1.316382 -0.90625,-2.21875 -1e-06,-0.808568 0.296873,-1.519504 0.90625,-2.09375 0.609372,-0.585909 1.343746,-0.874972 2.1875,-0.875 z M 39.9375,13.125 c -2.083341,2.1e-05 -4.369797,0.677104 -6.875,2 l 0,16.25 c 2.166661,-0.796872 4.07291,-1.697912 5.6875,-2.71875 1.614573,-1.026035 2.942697,-2.109368 4,-3.25 1.057278,-1.140615 1.833319,-2.312489 2.34375,-3.46875 0.515609,-1.156237 0.781234,-2.260402 0.78125,-3.3125 -1.6e-05,-1.031234 -0.218766,-1.942691 -0.6875,-2.78125 -0.463556,-0.838523 -1.171889,-1.489564 -2.0625,-1.96875 -0.885429,-0.484354 -1.947928,-0.749979 -3.1875,-0.75 z m -20.40625,8.75 c 0.914057,1.8e-05 1.6914,0.335955 2.3125,1.0625 0.621086,0.726579 0.937492,1.660172 0.9375,2.75 -8e-06,0.832045 -0.32032,1.714856 -0.90625,2.6875 -0.574225,0.960948 -1.296881,1.789072 -2.1875,2.46875 -0.87891,0.679696 -1.722659,1.031258 -2.53125,1.03125 0.457029,-0.433585 0.746091,-1.109366 0.875,-2 0.128903,-0.890614 0.218747,-1.609363 0.21875,-2.125 -1.031252,-0.609362 -1.648439,-1.484361 -1.8125,-2.65625 0.070311,-0.890609 0.402342,-1.648421 1,-2.28125 0.597653,-0.632795 1.296871,-0.937482 2.09375,-0.9375 z"
       id="rect2819"
       sodipodi:nodetypes="csccscccscccsscssccssccccsssscssccccssssssccsssscsccsc" />
    <text
       xml:space="preserve"
       style="font-size:40px;font-style:normal;font-weight:normal;fill:#000000;fill-opacity:1;stroke:none;font-family:Enviro;-inkscape-font-specification:Enviro"
       x="29.446009"
       y="21.558685"
       id="text2822"><tspan
         sodipodi:role="line"
         id="tspan2824" /></text>
  </g>
</svg>

<?xml version="1.0" encoding="UTF-8" standalone="no"?>
<!-- Created with Inkscape (http://www.inkscape.org/) -->

<svg
   xmlns:dc="http://purl.org/dc/elements/1.1/"
   xmlns:cc="http://creativecommons.org/ns#"
   xmlns:rdf="http://www.w3.org/1999/02/22-rdf-syntax-ns#"
   xmlns:svg="http://www.w3.org/2000/svg"
   xmlns="http://www.w3.org/2000/svg"
   xmlns:sodipodi="http://sodipodi.sourceforge.net/DTD/sodipodi-0.dtd"
   xmlns:inkscape="http://www.inkscape.org/namespaces/inkscape"
   width="64px"
   height="64px"
   id="svg2816"
   version="1.1"
   inkscape:version="0.47pre2 r22153"
   sodipodi:docname="kopete.svg">
  <defs
     id="defs2818">
    <inkscape:perspective
       sodipodi:type="inkscape:persp3d"
       inkscape:vp_x="0 : 32 : 1"
       inkscape:vp_y="0 : 1000 : 0"
       inkscape:vp_z="64 : 32 : 1"
       inkscape:persp3d-origin="32 : 21.333333 : 1"
       id="perspective2824" />
    <inkscape:perspective
       id="perspective3212"
       inkscape:persp3d-origin="0.5 : 0.33333333 : 1"
       inkscape:vp_z="1 : 0.5 : 1"
       inkscape:vp_y="0 : 1000 : 0"
       inkscape:vp_x="0 : 0.5 : 1"
       sodipodi:type="inkscape:persp3d" />
    <pattern
       patternUnits="userSpaceOnUse"
       width="61.424216"
       height="60.46547"
       patternTransform="translate(1.5250875,-0.1737675)"
       id="pattern4812">
      <path
         id="path3218"
         d="m 22.609428,59.501733 c 0.353795,-0.66107 1.046912,-1 2.045027,-1 1.837558,0 6.416851,-3.005004 9.801784,-6.43209 1.87121,-1.89451 3.06728,-2.623983 5.403189,-3.295358 8.128798,-2.336336 15.689085,-8.433987 18.985545,-15.312537 2.013365,-4.201185 2.244875,-6.905454 1.00026,-11.683864 C 57.164323,11.485181 48.51511,3.114148 38.109428,0.741155 L 34.859428,0 37.533912,0.2746525 c 4.253402,0.436798 10.135727,2.536738 13.576081,4.846545 5.645845,3.790546 9.02716,9.1643295 10.036485,15.9505695 1.92374,12.934317 -6.26592,24.379839 -20.844919,29.131981 -1.579649,0.5149 -3.491826,1.70256 -5,3.105525 -2.66797,2.481855 -7.936619,6.358325 -9.301118,6.84341 -0.472443,0.16796 -0.992348,0.08959 -1.155344,-0.17414 -0.187753,-0.30379 -0.639655,-0.295785 -1.233142,0.02185 -1.372853,0.734715 -1.601693,0.620895 -1.002527,-0.49866 z m -2.5,-9.43934 c -2.687,-0.865271 -6.136837,-2.500819 -5.35894,-2.540641 0.215082,-0.01101 1.115082,0.281996 2,0.651126 0.884917,0.36913 2.790884,0.954238 4.235482,1.30024 1.444598,0.346005 2.751627,0.831485 2.904508,1.078855 0.403174,0.65235 -0.664062,0.51416 -3.78105,-0.48958 z m 1.260804,-11.43566 c 0.920602,-2.190168 0.876997,-3.125 -0.145765,-3.125 -1.489813,0 -1.840139,-2.821621 -0.398401,-3.208821 1.931482,-0.518726 2.189311,-0.292732 2.535199,2.222175 0.26381,1.91813 0.15378,2.806221 -0.464608,3.75 -0.932718,1.423508 -2.087792,1.697173 -1.526425,0.361646 z m 19.501803,-2.160732 c 2.212122,-6.269822 1.480661,-16.043606 -1.558276,-20.821676 -0.90599,-1.424473 -0.896869,-1.475611 0.319936,-1.793812 1.478234,-0.386567 3.735279,3.451709 4.793213,8.15122 0.710836,3.157652 0.755802,4.359373 0.284663,7.607771 -0.698376,4.815149 -2.368017,8.892229 -3.641535,8.892229 -0.855911,0 -0.86895,-0.134059 -0.198001,-2.035732 z M 1.5816947,34.305488 C -1.8551193,26.536 0.45812119,16.071519 7.0719507,9.469039 11.440725,5.107761 18.015712,1.6989365 23.859428,0.765514 c 1.570813,-0.2509075 1.30257,-0.0720695 -1.25,0.833379 -6.292795,2.232182 -11.770114,6.4431525 -15.3020458,11.764233 -3.728422,5.617105 -5.805999,14.512317 -4.791184,20.513607 0.244137,1.443751 0.3523365,2.625 0.240443,2.625 -0.1118935,0 -0.6406195,-0.988309 -1.1749465,-2.196244 z M 25.849208,26.469531 c -0.446496,-1.406784 0.03608,-1.678235 4.356029,-2.450252 2.939032,-0.525234 3.597447,-0.516716 3.957256,0.05119 0.875057,1.381164 0.381582,1.873094 -2.428065,2.420465 -1.58125,0.308056 -3.474271,0.675107 -4.206714,0.815669 -1.05225,0.201936 -1.40449,0.02627 -1.678506,-0.837076 z m -7.978029,-4.372713 c -0.6258,-0.6258 -0.178621,-2.054081 0.733775,-2.343665 1.261447,-0.400367 2.004474,0.05179 2.004474,1.2198 0,0.868213 -2.122683,1.73943 -2.738249,1.123865 z M 26.474912,0.1737655 c 0.338517,-0.1369615 1.013517,-0.1452985 1.5,-0.018525 0.486484,0.126772 0.209516,0.2388315 -0.615484,0.249021 -0.825,0.01019 -1.223032,-0.0935325 -0.884516,-0.230494 z"
         style="fill:#000000" />
    </pattern>
  </defs>
  <sodipodi:namedview
     id="base"
     pagecolor="#ffffff"
     bordercolor="#666666"
     borderopacity="1.0"
     inkscape:pageopacity="0.0"
     inkscape:pageshadow="2"
     inkscape:zoom="13.3125"
     inkscape:cx="28.710312"
     inkscape:cy="34.014532"
     inkscape:current-layer="layer1"
     showgrid="true"
     inkscape:document-units="px"
     inkscape:grid-bbox="true"
     inkscape:window-width="2048"
     inkscape:window-height="1090"
     inkscape:window-x="0"
     inkscape:window-y="17"
     inkscape:window-maximized="1">
    <inkscape:grid
       type="xygrid"
       id="grid3222"
       empspacing="4"
       visible="true"
       enabled="true"
       snapvisiblegridlinesonly="true" />
  </sodipodi:namedview>
  <metadata
     id="metadata2821">
    <rdf:RDF>
      <cc:Work
         rdf:about="">
        <dc:format>image/svg+xml</dc:format>
        <dc:type
           rdf:resource="http://purl.org/dc/dcmitype/StillImage" />
        <dc:title />
      </cc:Work>
    </rdf:RDF>
  </metadata>
  <g
     id="layer1"
     inkscape:label="Layer 1"
     inkscape:groupmode="layer">
    <path
       style="opacity:0.66000007;fill:#000000;fill-opacity:1;fill-rule:nonzero;stroke:none"
       d="M 32 0 C 14.326888 0 4.2789846e-17 9.8497355 0 22 C 0 32.236907 10.164802 40.856574 23.9375 43.3125 L 20 64 L 36 44 C 35.372024 43.97406 34.731384 43.955713 34.09375 43.9375 C 50.794215 43.19843 64 33.668262 64 22 C 64 9.8497355 49.673112 -1.3183898e-16 32 0 z M 31.875 10.4375 C 32.182289 10.437524 32.489581 10.552107 32.75 10.78125 C 33.010414 11.005231 33.124997 11.286481 33.125 11.625 L 33.125 12.4375 C 35.661453 11.265648 38.09895 10.687523 40.40625 10.6875 C 41.984363 10.708357 43.369778 11.036481 44.5625 11.71875 C 45.760401 12.395855 46.66665 13.312521 47.3125 14.46875 C 47.963524 15.625018 48.31769 16.906267 48.34375 18.3125 C 48.343732 19.687514 48.026024 21.125013 47.4375 22.59375 C 46.85415 24.06251 45.979151 25.4948 44.75 26.90625 C 43.526028 28.317714 41.921863 29.614588 40 30.8125 C 38.078117 32.00521 35.828119 33.015626 33.25 33.8125 C 32.937497 33.942708 32.630206 34 32.28125 34 C 31.786457 34 31.390624 33.901042 31.09375 33.71875 C 30.796874 33.53125 30.624999 33.312501 30.625 33.0625 L 30.625 11.875 C 30.624999 10.911481 31.041666 10.437524 31.875 10.4375 z M 19.53125 11.6875 C 20.374995 11.687528 21.109369 11.988309 21.71875 12.5625 C 22.328118 13.125027 22.624992 13.824245 22.625 14.65625 C 22.624992 15.570337 22.328118 16.300805 21.71875 16.875 C 21.121088 17.449241 20.386713 17.750022 19.53125 17.75 C 18.675778 17.750022 17.953122 17.449241 17.34375 16.875 C 16.746092 16.289086 16.437499 15.558618 16.4375 14.65625 C 16.437499 13.847682 16.734373 13.136746 17.34375 12.5625 C 17.953122 11.976591 18.687496 11.687528 19.53125 11.6875 z M 39.9375 13.125 C 37.854159 13.125021 35.567703 13.802104 33.0625 15.125 L 33.0625 31.375 C 35.229161 30.578128 37.13541 29.677088 38.75 28.65625 C 40.364573 27.630215 41.692697 26.546882 42.75 25.40625 C 43.807278 24.265635 44.583319 23.093761 45.09375 21.9375 C 45.609359 20.781263 45.874984 19.677098 45.875 18.625 C 45.874984 17.593766 45.656234 16.682309 45.1875 15.84375 C 44.723944 15.005227 44.015611 14.354186 43.125 13.875 C 42.239571 13.390646 41.177072 13.125021 39.9375 13.125 z M 19.53125 21.875 C 20.445307 21.875018 21.22265 22.210955 21.84375 22.9375 C 22.464836 23.664079 22.781242 24.597672 22.78125 25.6875 C 22.781242 26.519545 22.46093 27.402356 21.875 28.375 C 21.300775 29.335948 20.578119 30.164072 19.6875 30.84375 C 18.80859 31.523446 17.964841 31.875008 17.15625 31.875 C 17.613279 31.441415 17.902341 30.765634 18.03125 29.875 C 18.160153 28.984386 18.249997 28.265637 18.25 27.75 C 17.218748 27.140638 16.601561 26.265639 16.4375 25.09375 C 16.507811 24.203141 16.839842 23.445329 17.4375 22.8125 C 18.035153 22.179705 18.734371 21.875018 19.53125 21.875 z "
       id="rect2819" />
    <text
       xml:space="preserve"
       style="font-size:40px;font-style:normal;font-weight:normal;fill:#000000;fill-opacity:1;stroke:none;font-family:Enviro;-inkscape-font-specification:Enviro"
       x="29.446009"
       y="21.558685"
       id="text2822"><tspan
         sodipodi:role="line"
         id="tspan2824"></tspan></text>
  </g>
</svg>
